assets/3_hearts.svg

<svg width="822" height="1122" fill="none" xmlns="http://www.w3.org/2000/svg"><rect width="822" height="1122" rx="50" fill="#F1F7EE"/><path d="M251.633 1019.1c8.533-.4 14.866-.6 19-.6 4.133 0 7.2.1 9.2.3 2.066.13 4.4.47 7 1 2.6.53 4.9 1.27 6.9 2.2 2.066.87 4.133 2.13 6.2 3.8 2.066 1.67 3.8 3.6 5.2 5.8 3.066 5.07 4.6 11.6 4.6 19.6 0 12.07-3.334 21.07-10 27-6.667 5.87-15.767 8.8-27.3 8.8h-20.8c-1 0-1.5-.5-1.5-1.5v-4.9c0-1 .5-1.5 1.5-1.5h5.2v-51.9h-5.2c-1 0-1.5-.5-1.5-1.5v-5.1c0-1 .5-1.5 1.5-1.5Zm23 60.1c7.333 0 13-2.4 17-7.2 4.066-4.8 6.1-11.37 6.1-19.7s-1.9-14.67-5.7-19c-3.734-4.33-9.6-6.5-17.6-6.5h-6.4v52.4h6.6Zm59.371-33.1c1.133-2.67 2.967-4.93 5.5-6.8 2.533-1.93 5.3-2.9 8.3-2.9 3 0 5.3.27 6.9.8.8.27 1.2.87 1.2 1.8v13.5c0 1-.5 1.5-1.5 1.5h-6.5c-1 0-1.467-.5-1.4-1.5l.4-5.8c-.333-.07-.9-.1-1.7-.1-3.067 0-5.6 1.27-7.6 3.8-2 2.47-3 5.8-3 10v18.7h11c1 0 1.5.5 1.5 1.5v4.9c0 1-.5 1.5-1.5 1.5h-27.5c-1 0-1.5-.5-1.5-1.5v-4.9c0-1 .5-1.5 1.5-1.5h5.3v-33.4h-5.4c-1 0-1.5-.5-1.5-1.5v-5.2c0-1 .5-1.5 1.5-1.5h13.2c.933 0 1.5.5 1.7 1.5l1.1 7.1Zm45.717 33h6.3c1 0 1.5.5 1.5 1.5v4.9c0 1-.5 1.5-1.5 1.5h-23.8c-1 0-1.5-.5-1.5-1.5v-4.9c0-1 .5-1.5 1.5-1.5h6.3v-33.4h-5.4c-1 0-1.5-.5-1.5-1.5v-5.2c0-1 .5-1.5 1.5-1.5h15.1c1 0 1.5.5 1.5 1.5v40.1Zm-12.1-50.5c-1.267-1.33-1.9-3.03-1.9-5.1s.633-3.77 1.9-5.1c1.333-1.4 3.067-2.1 5.2-2.1 2.2 0 3.933.7 5.2 2.1 1.333 1.33 2 3.03 2 5.1s-.667 3.77-2 5.1c-1.333 1.33-3.1 2-5.3 2-2.133 0-3.833-.67-5.1-2Zm23.395 15.7v-5.3c0-1 .5-1.5 1.5-1.5h13.6c.866 0 1.4.5 1.6 1.5l.9 5.8c3.733-5.6 9.066-8.4 16-8.4 10.333 0 15.5 5.67 15.5 17v25.7h5.8c1 0 1.5.5 1.5 1.5v4.9c0 1-.5 1.5-1.5 1.5h-21.8c-1 0-1.5-.5-1.5-1.5v-4.9c0-1 .5-1.5 1.5-1.5h4.8v-20.7c0-4.2-.534-7.27-1.6-9.2-1.067-1.93-3.267-2.9-6.6-2.9-3.334 0-6.1 1-8.3 3-2.2 2-3.3 4.27-3.3 6.8v23h6.2c1 0 1.5.5 1.5 1.5v4.9c0 1-.5 1.5-1.5 1.5h-22.7c-1 0-1.5-.5-1.5-1.5v-4.9c0-1 .5-1.5 1.5-1.5h5.3v-33.4h-5.4c-1 0-1.5-.47-1.5-1.4Zm78.451-30.4v39.9h5.1l15.5-15.2c.734-.73 1.6-1.1 2.6-1.1h7.8c1 0 1.5.5 1.5 1.5v5.2c0 1-.5 1.5-1.5 1.5h-6.1l-11 10.7 13.7 22.7h5.9c1 0 1.5.5 1.5 1.5v4.9c0 1-.5 1.5-1.5 1.5h-12.9c-.933 0-1.7-.43-2.3-1.3l-15-24.2h-3.3v17.6h5.3c1 0 1.5.5 1.5 1.5v4.9c0 1-.5 1.5-1.5 1.5h-21.8c-1 0-1.5-.5-1.5-1.5v-4.9c0-1 .5-1.5 1.5-1.5h5.3v-58.6h-5.4c-1 0-1.5-.5-1.5-1.5v-5.1c0-1 .5-1.5 1.5-1.5h15.1c1 0 1.5.5 1.5 1.5Zm77.86 87.2c-13.2 0-19.8-5.73-19.8-17.2 0-1 .6-1.5 1.8-1.5h5.6c.8 0 1.3.13 1.5.4.267.2.467.7.6 1.5.267 3.07 1.234 5.23 2.9 6.5 1.667 1.33 4.267 2 7.8 2 3.534 0 6.234-.87 8.1-2.6 1.934-1.73 2.9-4.7 2.9-8.9 0-7.13-3.566-10.87-10.7-11.2-.733-.07-1.766-.1-3.1-.1h-2.9c-.733 0-1.233-.13-1.5-.4-.266-.27-.4-.77-.4-1.5v-4.4c0-.73.134-1.2.4-1.4.267-.27 1.434-.47 3.5-.6 2.067-.13 3.567-.27 4.5-.4 6-1.13 9-4.57 9-10.3 0-5.8-3.033-8.7-9.1-8.7-6.066 0-9.433 2.87-10.1 8.6-.133.73-.333 1.23-.6 1.5-.266.27-.766.4-1.5.4h-5.3c-.733 0-1.233-.13-1.5-.4-.266-.27-.366-.77-.3-1.5.267-5.6 2.267-9.83 6-12.7 3.8-2.87 8.667-4.3 14.6-4.3 5.934 0 10.5 1.37 13.7 4.1 3.267 2.73 4.9 6.63 4.9 11.7 0 7.27-4.3 12.47-12.9 15.6 3.934.53 7.3 2.17 10.1 4.9 2.8 2.67 4.2 6.4 4.2 11.2 0 6-2.033 10.77-6.1 14.3-4.066 3.6-9.5 5.4-16.3 5.4ZM123.39 264.3c-39.6 0-59.4-17.2-59.4-51.6 0-3 1.8-4.5 5.4-4.5h16.8c2.4 0 3.9.4 4.5 1.2.8.6 1.4 2.1 1.8 4.5.8 9.2 3.7 15.7 8.7 19.5 5 4 12.8 6 23.4 6 10.6 0 18.7-2.6 24.3-7.8 5.8-5.2 8.7-14.1 8.7-26.7 0-21.4-10.7-32.6-32.1-33.6-2.2-.2-5.3-.3-9.3-.3h-8.7c-2.2 0-3.7-.4-4.5-1.2-.8-.8-1.2-2.3-1.2-4.5v-13.2c0-2.2.4-3.6 1.2-4.2.8-.8 4.3-1.4 10.5-1.8 6.2-.4 10.7-.8 13.5-1.2 18-3.4 27-13.7 27-30.9 0-17.4-9.1-26.1-27.3-26.1-18.2 0-28.3 8.6-30.3 25.8-.4 2.2-1 3.7-1.8 4.5-.8.8-2.3 1.2-4.5 1.2h-15.9c-2.2 0-3.7-.4-4.5-1.2-.8-.8-1.1-2.3-.9-4.5.8-16.8 6.8-29.5 18-38.1 11.4-8.6 26-12.9 43.8-12.9 17.8 0 31.5 4.1 41.1 12.3 9.8 8.2 14.7 19.9 14.7 35.1 0 21.8-12.9 37.4-38.7 46.8 11.8 1.6 21.9 6.5 30.3 14.7 8.4 8 12.6 19.2 12.6 33.6 0 18-6.1 32.3-18.3 42.9-12.2 10.8-28.5 16.2-48.9 16.2Z" fill="#000"/><path d="M172.289 328.69a26.362 26.362 0 0 0-28.682-5.691 26.3 26.3 0 0 0-8.537 5.691l-5.071 5.057-5.071-5.057a26.356 26.356 0 0 0-18.61-7.687 26.355 26.355 0 0 0-18.61 7.687A26.21 26.21 0 0 0 80 347.249a26.21 26.21 0 0 0 7.708 18.559l5.071 5.058 33.689 33.597a5 5 0 0 0 7.061 0l33.689-33.597 5.071-5.058a26.222 26.222 0 0 0 5.707-8.514 26.184 26.184 0 0 0-5.707-28.604Z" fill="#F7081D"/><mask id="a" style="mask-type:alpha" maskUnits="userSpaceOnUse" x="130" y="321" width="50" height="85"><path fill="#D9D9D9" d="M130 321h50v84.916h-50z"/></mask><g mask="url(#a)"><path d="M172.289 328.69a26.362 26.362 0 0 0-28.682-5.691 26.3 26.3 0 0 0-8.537 5.691l-5.071 5.057-5.071-5.057a26.356 26.356 0 0 0-18.61-7.687 26.355 26.355 0 0 0-18.61 7.687A26.21 26.21 0 0 0 80 347.249a26.21 26.21 0 0 0 7.708 18.559l5.071 5.058 33.689 33.597a5 5 0 0 0 7.061 0l33.689-33.597 5.071-5.058a26.222 26.222 0 0 0 5.707-8.514 26.184 26.184 0 0 0-5.707-28.604Z" fill="#DC1021"/></g><path d="M562.395 432.53a94.225 94.225 0 0 0-30.565-20.375 94.417 94.417 0 0 0-72.115 0 94.203 94.203 0 0 0-30.565 20.375l-18.155 18.105-18.154-18.105c-17.669-17.621-41.634-27.521-66.622-27.521-24.989 0-48.954 9.9-66.623 27.521A93.838 93.838 0 0 0 232 498.972a93.834 93.834 0 0 0 27.596 66.442l18.154 18.105 119.122 118.799c7.806 7.785 20.44 7.785 28.246 0l119.123-118.799 18.154-18.105a93.929 93.929 0 0 0 20.43-30.482 93.713 93.713 0 0 0 0-71.92 93.929 93.929 0 0 0-20.43-30.482Z" fill="#F7081D"/><mask id="b" style="mask-type:alpha" maskUnits="userSpaceOnUse" x="411" y="405" width="179" height="304"><path fill="#D9D9D9" d="M411 405h179v304H411z"/></mask><g mask="url(#b)"><path d="M562.395 432.53a94.225 94.225 0 0 0-30.565-20.375 94.417 94.417 0 0 0-72.115 0 94.203 94.203 0 0 0-30.565 20.375l-18.155 18.105-18.154-18.105c-17.669-17.621-41.634-27.521-66.622-27.521-24.989 0-48.954 9.9-66.623 27.521A93.838 93.838 0 0 0 232 498.972a93.834 93.834 0 0 0 27.596 66.442l18.154 18.105 119.122 118.799c7.806 7.785 20.44 7.785 28.246 0l119.123-118.799 18.154-18.105a93.929 93.929 0 0 0 20.43-30.482 93.713 93.713 0 0 0 0-71.92 93.929 93.929 0 0 0-20.43-30.482Z" fill="#DC1021"/></g></svg>

<svg width="822" height="1122" viewBox="0 0 822 1122" fill="none" xmlns="http://www.w3.org/2000/svg">
<rect width="822" height="1122" rx="50" fill="#F1F7EE"/>
<path d="M251.633 1019.1C260.166 1018.7 266.499 1018.5 270.633 1018.5C274.766 1018.5 277.833 1018.6 279.833 1018.8C281.899 1018.93 284.233 1019.27 286.833 1019.8C289.433 1020.33 291.733 1021.07 293.733 1022C295.799 1022.87 297.866 1024.13 299.933 1025.8C301.999 1027.47 303.733 1029.4 305.133 1031.6C308.199 1036.67 309.733 1043.2 309.733 1051.2C309.733 1063.27 306.399 1072.27 299.733 1078.2C293.066 1084.07 283.966 1087 272.433 1087H251.633C250.633 1087 250.133 1086.5 250.133 1085.5V1080.6C250.133 1079.6 250.633 1079.1 251.633 1079.1H256.833V1027.2H251.633C250.633 1027.2 250.133 1026.7 250.133 1025.7V1020.6C250.133 1019.6 250.633 1019.1 251.633 1019.1ZM274.633 1079.2C281.966 1079.2 287.633 1076.8 291.633 1072C295.699 1067.2 297.733 1060.63 297.733 1052.3C297.733 1043.97 295.833 1037.63 292.033 1033.3C288.299 1028.97 282.433 1026.8 274.433 1026.8H268.033V1079.2H274.633ZM334.004 1046.1C335.137 1043.43 336.971 1041.17 339.504 1039.3C342.037 1037.37 344.804 1036.4 347.804 1036.4C350.804 1036.4 353.104 1036.67 354.704 1037.2C355.504 1037.47 355.904 1038.07 355.904 1039V1052.5C355.904 1053.5 355.404 1054 354.404 1054H347.904C346.904 1054 346.437 1053.5 346.504 1052.5L346.904 1046.7C346.571 1046.63 346.004 1046.6 345.204 1046.6C342.137 1046.6 339.604 1047.87 337.604 1050.4C335.604 1052.87 334.604 1056.2 334.604 1060.4V1079.1H345.604C346.604 1079.1 347.104 1079.6 347.104 1080.6V1085.5C347.104 1086.5 346.604 1087 345.604 1087H318.104C317.104 1087 316.604 1086.5 316.604 1085.5V1080.6C316.604 1079.6 317.104 1079.1 318.104 1079.1H323.404V1045.7H318.004C317.004 1045.7 316.504 1045.2 316.504 1044.2V1039C316.504 1038 317.004 1037.5 318.004 1037.5H331.204C332.137 1037.5 332.704 1038 332.904 1039L334.004 1046.1ZM379.721 1079.1H386.021C387.021 1079.1 387.521 1079.6 387.521 1080.6V1085.5C387.521 1086.5 387.021 1087 386.021 1087H362.221C361.221 1087 360.721 1086.5 360.721 1085.5V1080.6C360.721 1079.6 361.221 1079.1 362.221 1079.1C362.221 1079.1 364.321 1079.1 368.521 1079.1V1045.7H363.121C362.121 1045.7 361.621 1045.2 361.621 1044.2V1039C361.621 1038 362.121 1037.5 363.121 1037.5H378.221C379.221 1037.5 379.721 1038 379.721 1039V1079.1ZM367.621 1028.6C366.354 1027.27 365.721 1025.57 365.721 1023.5C365.721 1021.43 366.354 1019.73 367.621 1018.4C368.954 1017 370.688 1016.3 372.821 1016.3C375.021 1016.3 376.754 1017 378.021 1018.4C379.354 1019.73 380.021 1021.43 380.021 1023.5C380.021 1025.57 379.354 1027.27 378.021 1028.6C376.688 1029.93 374.921 1030.6 372.721 1030.6C370.588 1030.6 368.888 1029.93 367.621 1028.6ZM391.016 1044.3V1039C391.016 1038 391.516 1037.5 392.516 1037.5H406.116C406.982 1037.5 407.516 1038 407.716 1039L408.616 1044.8C412.349 1039.2 417.682 1036.4 424.616 1036.4C434.949 1036.4 440.116 1042.07 440.116 1053.4V1079.1H445.916C446.916 1079.1 447.416 1079.6 447.416 1080.6V1085.5C447.416 1086.5 446.916 1087 445.916 1087H424.116C423.116 1087 422.616 1086.5 422.616 1085.5V1080.6C422.616 1079.6 423.116 1079.1 424.116 1079.1H428.916V1058.4C428.916 1054.2 428.382 1051.13 427.316 1049.2C426.249 1047.27 424.049 1046.3 420.716 1046.3C417.382 1046.3 414.616 1047.3 412.416 1049.3C410.216 1051.3 409.116 1053.57 409.116 1056.1V1079.1H415.316C416.316 1079.1 416.816 1079.6 416.816 1080.6V1085.5C416.816 1086.5 416.316 1087 415.316 1087H392.616C391.616 1087 391.116 1086.5 391.116 1085.5V1080.6C391.116 1079.6 391.616 1079.1 392.616 1079.1H397.916V1045.7H392.516C391.516 1045.7 391.016 1045.23 391.016 1044.3ZM469.467 1013.9V1053.8H474.567L490.067 1038.6C490.801 1037.87 491.667 1037.5 492.667 1037.5H500.467C501.467 1037.5 501.967 1038 501.967 1039V1044.2C501.967 1045.2 501.467 1045.7 500.467 1045.7H494.367L483.367 1056.4L497.067 1079.1H502.967C503.967 1079.1 504.467 1079.6 504.467 1080.6V1085.5C504.467 1086.5 503.967 1087 502.967 1087H490.067C489.134 1087 488.367 1086.57 487.767 1085.7L472.767 1061.5H469.467V1079.1H474.767C475.767 1079.1 476.267 1079.6 476.267 1080.6V1085.5C476.267 1086.5 475.767 1087 474.767 1087H452.967C451.967 1087 451.467 1086.5 451.467 1085.5V1080.6C451.467 1079.6 451.967 1079.1 452.967 1079.1H458.267V1020.5H452.867C451.867 1020.5 451.367 1020 451.367 1019V1013.9C451.367 1012.9 451.867 1012.4 452.867 1012.4H467.967C468.967 1012.4 469.467 1012.9 469.467 1013.9ZM547.327 1101.1C534.127 1101.1 527.527 1095.37 527.527 1083.9C527.527 1082.9 528.127 1082.4 529.327 1082.4H534.927C535.727 1082.4 536.227 1082.53 536.427 1082.8C536.694 1083 536.894 1083.5 537.027 1084.3C537.294 1087.37 538.261 1089.53 539.927 1090.8C541.594 1092.13 544.194 1092.8 547.727 1092.8C551.261 1092.8 553.961 1091.93 555.827 1090.2C557.761 1088.47 558.727 1085.5 558.727 1081.3C558.727 1074.17 555.161 1070.43 548.027 1070.1C547.294 1070.03 546.261 1070 544.927 1070H542.027C541.294 1070 540.794 1069.87 540.527 1069.6C540.261 1069.33 540.127 1068.83 540.127 1068.1V1063.7C540.127 1062.97 540.261 1062.5 540.527 1062.3C540.794 1062.03 541.961 1061.83 544.027 1061.7C546.094 1061.57 547.594 1061.43 548.527 1061.3C554.527 1060.17 557.527 1056.73 557.527 1051C557.527 1045.2 554.494 1042.3 548.427 1042.3C542.361 1042.3 538.994 1045.17 538.327 1050.9C538.194 1051.63 537.994 1052.13 537.727 1052.4C537.461 1052.67 536.961 1052.8 536.227 1052.8H530.927C530.194 1052.8 529.694 1052.67 529.427 1052.4C529.161 1052.13 529.061 1051.63 529.127 1050.9C529.394 1045.3 531.394 1041.07 535.127 1038.2C538.927 1035.33 543.794 1033.9 549.727 1033.9C555.661 1033.9 560.227 1035.27 563.427 1038C566.694 1040.73 568.327 1044.63 568.327 1049.7C568.327 1056.97 564.027 1062.17 555.427 1065.3C559.361 1065.83 562.727 1067.47 565.527 1070.2C568.327 1072.87 569.727 1076.6 569.727 1081.4C569.727 1087.4 567.694 1092.17 563.627 1095.7C559.561 1099.3 554.127 1101.1 547.327 1101.1Z" fill="black"/>
<path d="M123.39 264.3C83.7902 264.3 63.9902 247.1 63.9902 212.7C63.9902 209.7 65.7902 208.2 69.3902 208.2H86.1902C88.5902 208.2 90.0902 208.6 90.6902 209.4C91.4902 210 92.0902 211.5 92.4902 213.9C93.2902 223.1 96.1902 229.6 101.19 233.4C106.19 237.4 113.99 239.4 124.59 239.4C135.19 239.4 143.29 236.8 148.89 231.6C154.69 226.4 157.59 217.5 157.59 204.9C157.59 183.5 146.89 172.3 125.49 171.3C123.29 171.1 120.19 171 116.19 171H107.49C105.29 171 103.79 170.6 102.99 169.8C102.19 169 101.79 167.5 101.79 165.3V152.1C101.79 149.9 102.19 148.5 102.99 147.9C103.79 147.1 107.29 146.5 113.49 146.1C119.69 145.7 124.19 145.3 126.99 144.9C144.99 141.5 153.99 131.2 153.99 114C153.99 96.6 144.89 87.9 126.69 87.9C108.49 87.9 98.3902 96.5 96.3902 113.7C95.9902 115.9 95.3902 117.4 94.5902 118.2C93.7902 119 92.2902 119.4 90.0902 119.4H74.1902C71.9902 119.4 70.4902 119 69.6902 118.2C68.8902 117.4 68.5902 115.9 68.7902 113.7C69.5902 96.9 75.5902 84.2 86.7902 75.6C98.1902 67 112.79 62.7 130.59 62.7C148.39 62.7 162.09 66.8 171.69 75C181.49 83.2 186.39 94.9 186.39 110.1C186.39 131.9 173.49 147.5 147.69 156.9C159.49 158.5 169.59 163.4 177.99 171.6C186.39 179.6 190.59 190.8 190.59 205.2C190.59 223.2 184.49 237.5 172.29 248.1C160.09 258.9 143.79 264.3 123.39 264.3Z" fill="black"/>
<path d="M172.289 328.69C169.846 326.252 166.944 324.318 163.751 322.999C160.558 321.679 157.136 321 153.679 321C150.223 321 146.801 321.679 143.607 322.999C140.414 324.318 137.513 326.252 135.07 328.69L129.999 333.747L124.928 328.69C119.992 323.768 113.298 321.003 106.318 321.003C99.3381 321.003 92.644 323.768 87.7084 328.69C82.7728 333.612 80 340.288 80 347.249C80 354.21 82.7728 360.886 87.7084 365.808L92.7794 370.866L126.468 404.463C128.42 406.409 131.578 406.409 133.529 404.463L167.218 370.866L172.289 365.808C174.734 363.372 176.673 360.478 177.996 357.294C179.319 354.109 180 350.696 180 347.249C180 343.802 179.319 340.389 177.996 337.205C176.673 334.02 174.734 331.127 172.289 328.69Z" fill="#F7081D"/>
<mask id="mask0_1023_4744" style="mask-type:alpha" maskUnits="userSpaceOnUse" x="130" y="321" width="50" height="85">
<rect x="130" y="321" width="50" height="84.9162" fill="#D9D9D9"/>
</mask>
<g mask="url(#mask0_1023_4744)">
<path d="M172.289 328.69C169.846 326.252 166.944 324.318 163.751 322.999C160.558 321.679 157.136 321 153.679 321C150.223 321 146.801 321.679 143.607 322.999C140.414 324.318 137.513 326.252 135.07 328.69L129.999 333.747L124.928 328.69C119.992 323.768 113.298 321.003 106.318 321.003C99.3381 321.003 92.644 323.768 87.7084 328.69C82.7728 333.612 80 340.288 80 347.249C80 354.21 82.7728 360.886 87.7084 365.808L92.7794 370.866L126.468 404.463C128.42 406.409 131.578 406.409 133.529 404.463L167.218 370.866L172.289 365.808C174.734 363.372 176.673 360.478 177.996 357.294C179.319 354.109 180 350.696 180 347.249C180 343.802 179.319 340.389 177.996 337.205C176.673 334.02 174.734 331.127 172.289 328.69Z" fill="#DC1021"/>
</g>
<path d="M562.395 432.53C553.647 423.802 543.261 416.879 531.83 412.155C520.398 407.431 508.146 405 495.772 405C483.398 405 471.146 407.431 459.715 412.155C448.283 416.879 437.897 423.802 429.15 432.53L410.995 450.635L392.841 432.53C375.172 414.909 351.207 405.009 326.219 405.009C301.23 405.009 277.265 414.909 259.596 432.53C241.927 450.152 232 474.052 232 498.972C232 523.893 241.927 547.793 259.596 565.414L277.75 583.519L396.872 702.318C404.678 710.103 417.312 710.103 425.118 702.318L544.241 583.519L562.395 565.414C571.146 556.69 578.089 546.332 582.825 534.932C587.562 523.532 590 511.312 590 498.972C590 486.632 587.562 474.413 582.825 463.012C578.089 451.612 571.146 441.254 562.395 432.53Z" fill="#F7081D"/>
<mask id="mask1_1023_4744" style="mask-type:alpha" maskUnits="userSpaceOnUse" x="411" y="405" width="179" height="304">
<rect x="411" y="405" width="179" height="304" fill="#D9D9D9"/>
</mask>
<g mask="url(#mask1_1023_4744)">
<path d="M562.395 432.53C553.647 423.802 543.261 416.879 531.83 412.155C520.398 407.431 508.146 405 495.772 405C483.398 405 471.146 407.431 459.715 412.155C448.283 416.879 437.897 423.802 429.15 432.53L410.995 450.635L392.841 432.53C375.172 414.909 351.207 405.009 326.219 405.009C301.23 405.009 277.265 414.909 259.596 432.53C241.927 450.152 232 474.052 232 498.972C232 523.893 241.927 547.793 259.596 565.414L277.75 583.519L396.872 702.318C404.678 710.103 417.312 710.103 425.118 702.318L544.241 583.519L562.395 565.414C571.146 556.69 578.089 546.332 582.825 534.932C587.562 523.532 590 511.312 590 498.972C590 486.632 587.562 474.413 582.825 463.012C578.089 451.612 571.146 441.254 562.395 432.53Z" fill="#DC1021"/>
</g>
</svg>
